X: 1
T: The Fyket Reel
O: trad
N: (#) You may play G# here, or a "neutral G".
B: Skye p.13 (labelled "very old")
Z: 2009 John Chambers <jc@trillian.mit.edu>
R: reel
M: C|
L: 1/8
K: AMix
   g \
| "A"fAeA aAeg | fAeA "G"BGGg | "A"fAeA aAeg | fee=c "G"BGG :|
|: g \
| "A"f/"(#)"g/a ea {d}cAAg | f/"(#)"g/a ea "G"BGGg | "A"f/g/a ea ceaf \
|1 "G"gde=c BGG :|2 "G"gbeg Bgg |]
